X:1
T:145 - Batismo
T:Letra: William Edwin Entzminger (1859-1930)
T:Música: Asa Hull (1828 - ?) 
M:3/4
L:1/8
Q:1/4=100
K:Fmaj
V:1
A2 | "C"AG G2 B2 | "F"BA A2 c2 | c3A FA | "C"G4 "F"A2 | Bc "Bb"d3d | "F"dc c2 c2 | "C"c3c "C7"BG | "F"F4 |]
w: 1.~Às á-guas do Jor-dão des-ceu Je-sus, o Re-den-tor,  O Deus e-ter-no, que mor-reu Por nós em san-toa-mor.
w: 2.~Oe-xem-plo seu de-ve-mos ter Por nor-maa nos cin-gir; O sal-vo pe-lo seu po-der Seus pas-sos quer se-guir.
w: 3.~Por nós mor-reu Je-sus, na cruz, E nos re-miu do mal; A-briu ca-mi-nho que con-duz À vi-da di-vi-nal.
w: 4.~Mor-re-mos ao pe-ca-do vil, Pra nun-ca mais vol-tar, Eos er-ros des-te mun-dohos-til Que-re-mos des-pre-zar.
w: 5.~A vi-da no-va va-mos ter, Ao bem nos de-di-car, Em san-ti-da-deea-mor vi-ver, Doa-mor de Deus fa-lar.
W: 
W:
W: 1. Às águas do Jordão desceu
W: Jesus, o Redentor, 
W: O Deus eterno, que morreu
W: Por nós em santo amor.
W: 
W: 2. O exemplo seu devemos ter
W: Por norma a nos cingir;
W: O salvo pelo seu poder
W: Seus passos quer seguir.
W: 
W: 3. Por nós morreu Jesus, na cruz,
W: E nos remiu do mal;
W: Abriu caminho que conduz
W: À vida divinal.
W: 
W:
W:
W: 4. Morremos ao pecado vil,
W: Pra nunca mais voltar,
W: E os erros deste mundo hostil
W: Queremos desprezar.
W: 
W: 5. A vida nova vamos ter,
W: Ao bem nos dedicar,
W: Em santidade e amor viver,
W: Do amor de Deus falar.
W:         
W: 





